X:1
T:Title
%%score { ( 1 4 ) | ( 2 3 ) }
L:1/8
M:4/4
K:C
V:1 treble nm="Grand Piano"
V:4 treble 
V:2 bass 
V:3 bass 
V:1
 z4 z2[Q:1/4=100] [CE][DF] | [EG][_E^F][=EG][=FA] [EG]2 [Ec]2 | [Ac]B .[CAc]2 [CAc]2 [CFA]2 | %3
 [EG][_E^F][=EG][=FA] [EG]2 [CE]2 | [B,D]6 [CE][DF] | [EG][_E^F][=EG][=FA] [EG]2 [Ec]2 | %6
 [Ac]B .[CAc]2 [CAc]2 A2 | G2 c2 e2 d2 | [Ec]6 [Ec]2 | [CAc]2 [CAc]2 [CGB]2 [CFA]2 | %10
 [CEG]6 [CEG]2 | [CFA]2 [CFA]2 [EG]2 [G,DF]2 | [CE]6 [CE][DF] | [EG][_E^F][=EG][=FA] [EG]2 [Ec]2 | %14
 [Ac]B .[CAc]2 [CAc]2 A2 | G2 c2 e2 d2 |[M:3/4] [Ec]6 |] %17
V:2
 z4 z2 [C,G,]2 | [C,C]2 [C,C]2 [C,C]2 [C,C]2 | z[K:treble] ^G z d[K:bass] F,2 F,2 | %3
 [C,C]2 [C,C]2 [C,C]2 [C,G,]2 | [G,,G,]6 [C,G,]2 | [C,C]2 [C,C]2 [C,C]2 [C,C]2 | %6
 z[K:treble] ^G z d[K:bass] F,2 [F,CF]2 | [G,CE]2 [G,CE]2 [G,CG]2 [G,B,F]2 | [C,C]6 [C,C]2 | %9
 F,2 F,2 F,2 F,2 | C,2 E,2 G,2 C,2 | F,2 F,2 G,2 G,,2 | z2 G,4 z2 | [C,C]2 [C,C]2 [C,C]2 [C,C]2 | %14
 z[K:treble] G z d[K:bass] F,2 [F,CF]2 | [G,CE]2 [G,CE]2 [G,CG]2 [G,B,F]2 | %16
[M:3/4][K:bass] [C,C]6 |] %17
V:3
 x8 | x8 | [F,C]2[K:treble] F,2[K:bass] z4 | x8 | x8 | x8 | [F,C]2[K:treble] F,2[K:bass] z4 | x8 | %8
 x8 | x8 | x8 | x8 | C,2 z2 E,2 [C,G,]2 | x8 | [F,C]2[K:treble] F,2[K:bass] z4 | x8 | %16
[M:3/4][K:bass] x6 |] %17
V:4
 x8 | x8 | x8 | x8 | x8 | x8 | x8 | x8 | x8 | x8 | x8 | x8 | G,2 z2 z4 | x8 | x8 | x8 | %16
[M:3/4] x6 |] %17

